svgs/icons/sm/train.svg

<svg xmlns="http://www.w3.org/2000/svg" viewBox="0 0 16 16" enable-background="new 0 0 16 16"><path fill="#34363D" d="M14 9.662v-6.324c0-1.836-1.502-3.338-3.338-3.338h-5.324c-1.836 0-3.338 1.502-3.338 3.338v6.324c0 1.545 1.069 2.842 2.5 3.218v.018l-2.5 3.102h1.921l1.636-2h4.885l1.636 2h1.922l-2.5-3.102v-.018c1.431-.376 2.5-1.673 2.5-3.218zm-3 .338c-.552 0-1-.448-1-1s.448-1 1-1 1 .448 1 1-.448 1-1 1zm-4.5-9h3c.275 0 .5.225.5.5s-.225.5-.5.5h-3c-.275 0-.5-.225-.5-.5s.225-.5.5-.5zm-2.5 2.8c0-.44.36-.8.8-.8h6.4c.44 0 .8.36.8.8v2.4c0 .44-.36.8-.8.8h-6.4c-.44 0-.8-.36-.8-.8v-2.4zm0 5.2c0-.552.448-1 1-1s1 .448 1 1-.448 1-1 1-1-.448-1-1z"/></svg>

<svg xmlns="http://www.w3.org/2000/svg" viewBox="0 0 16 16"><path fill="#34363D" d="M14 9.662V3.338A3.348 3.348 0 0 0 10.662 0H5.338A3.348 3.348 0 0 0 2 3.338v6.324c0 1.545 1.069 2.842 2.5 3.218v.018L2 16h1.921l1.636-2h4.885l1.636 2H14l-2.5-3.102v-.018c1.431-.376 2.5-1.673 2.5-3.218zM11 10a1 1 0 1 1 0-2 1 1 0 0 1 0 2zM6.5 1h3c.275 0 .5.225.5.5s-.225.5-.5.5h-3c-.275 0-.5-.225-.5-.5s.225-.5.5-.5zM4 3.8c0-.44.36-.8.8-.8h6.4c.44 0 .8.36.8.8v2.4c0 .44-.36.8-.8.8H4.8c-.44 0-.8-.36-.8-.8V3.8zM4 9a1 1 0 1 1 2 0 1 1 0 0 1-2 0z"/></svg>
